svg/u2728.svg

<svg viewBox="0 0 128 128" xmlns="http://www.w3.org/2000/svg">
  <defs/>
  <path d="M121.59,60.83 L107.66,56.34 C98.75,53.4 93.53,46.19 91.08,37.13 L84.95,7.27 C84.79,6.68 84.4,5.89 83.2,5.89 C82.19,5.89 81.61,6.68 81.45,7.27 L75.32,37.14 C72.86,46.2 67.65,53.41 58.74,56.35 L44.81,60.84 C42.84,61.48 42.81,64.26 44.77,64.93 L58.8,69.76 C67.68,72.71 72.86,79.91 75.32,88.93 L81.46,118.46 C81.62,119.05 81.95,120.11 83.21,120.11 C84.54,120.11 84.8,119.05 84.96,118.46 L91.1,88.93 C93.56,79.9 98.74,72.7 107.62,69.76 L121.65,64.93 C123.59,64.25 123.56,61.47 121.59,60.83 Z" fill="#FDD835"/>
  <path d="M122.91,62.08 C122.69,61.53 122.26,61.05 121.59,60.83 L107.66,56.34 C98.75,53.4 93.53,46.19 91.08,37.13 L84.95,7.27 C84.86,6.93 84.54,6.31 84.17,6.13 L86.15,36.1 C87.62,49.78 88.88,56.22 99.8,58.1 C109.18,59.72 120.03,61.58 122.91,62.08 Z" fill="#FFEE58"/>
  <path d="M122.94,63.64 L98.78,69.18 C90.27,71.34 85.58,76.27 85.58,89.17 L83.21,120.11 C84.02,120.03 84.68,119.59 84.96,118.46 L91.1,88.93 C93.56,79.9 98.74,72.7 107.62,69.76 L121.65,64.93 C122.31,64.69 122.73,64.2 122.94,63.64 Z" fill="#F4B400"/>
  <path d="M41.81,86.81 C33.48,84.06 32.72,80.96 31.32,75.73 L27.83,63.49 C27.62,62.7 25.56,62.7 25.34,63.49 L22.97,74.8 C21.56,80.01 18.56,84.15 13.44,85.84 L5.28,89.38 C4.15,89.75 4.13,91.35 5.26,91.73 L13.48,94.64 C18.58,96.33 21.56,100.47 22.98,105.66 L25.35,116.48 C25.57,117.27 27.62,117.27 27.83,116.48 L30.61,105.71 C32.02,100.49 34.18,96.34 41.11,94.64 L48.83,91.73 C49.96,91.34 49.95,89.74 48.81,89.37 L41.81,86.81 Z" fill="#FDD835"/>
  <path d="M28.49,75.55 C29.34,83.41 29.77,85.59 36.14,87.22 L49.41,89.81 C49.27,89.62 49.07,89.46 48.8,89.38 L41.8,86.81 C34.49,84.31 32.47,81.13 31.1,74.77 C29.73,68.41 28.27,64.26 28.27,64.26 C27.76,62.89 27.03,62.96 27.03,62.96 L28.49,75.55 Z" fill="#FFEE58"/>
  <path d="M28.73,102.99 C28.73,95.58 32.78,91.91 39.22,91.91 L49.24,91.5 C49.24,91.5 48.66,92.27 47.65,92.51 L41.11,94.64 C35.56,96.87 33.03,97.99 31.31,105.58 C31.31,105.58 29.09,114.41 28.67,115.34 C28.09,116.64 27.4,116.91 27.4,116.91 L28.73,102.99 Z" fill="#F4B400"/>
  <path d="M59.74,28.14 C60.3,27.95 60.28,27.15 59.71,26.99 L51.99,24.91 C50.37,24.47 49.11,23.22 48.65,21.61 L45.61,9.06 C45.46,8.45 44.59,8.45 44.44,9.07 L41.58,21.57 C41.14,23.23 39.84,24.51 38.18,24.94 L30.51,26.93 C29.94,27.08 29.9,27.88 30.46,28.08 L38.55,30.88 C40,31.38 41.12,32.56 41.56,34.03 L44.45,45.62 C44.6,46.22 45.46,46.23 45.61,45.62 L48.6,33.99 C49.05,32.52 50.18,31.35 51.64,30.86 L59.74,28.14 Z" fill="#F4B400"/>
  <path d="M59.899,28.614 L51.799,31.334 Q49.728,32.029 49.081,34.126 L46.096,45.739 Q45.889,46.578 45.028,46.574 Q44.172,46.57 43.965,45.741 L41.078,34.163 Q40.444,32.062 38.386,31.352 L30.292,28.551 Q29.524,28.277 29.562,27.463 Q29.599,26.653 30.384,26.446 L38.055,24.456 Q40.459,23.833 41.095,21.45 L43.954,8.952 Q44.158,8.108 45.023,8.104 Q45.889,8.1 46.096,8.942 L49.134,21.482 Q49.799,23.797 52.12,24.427 L59.845,26.509 Q60.628,26.728 60.649,27.541 Q60.669,28.353 59.901,28.613 Z M59.579,27.667 L59.581,27.666 Q59.651,27.641 59.649,27.567 Q59.647,27.492 59.575,27.471 L51.86,25.393 Q48.988,24.613 48.169,21.747 L48.166,21.738 L45.124,9.178 Q45.106,9.103 45.027,9.104 Q44.946,9.104 44.926,9.188 L42.066,21.69 L42.063,21.698 Q41.28,24.654 38.305,25.424 L30.636,27.414 Q30.564,27.433 30.561,27.509 Q30.557,27.584 30.628,27.609 L38.714,30.407 Q41.261,31.286 42.039,33.887 L42.042,33.898 L44.935,45.499 Q44.954,45.573 45.032,45.574 Q45.106,45.574 45.124,45.501 L48.119,33.855 L48.122,33.844 Q48.917,31.247 51.481,30.386 Z" fill="#F4B400"/>
</svg>

<svg viewBox="0 0 128 128" xmlns="http://www.w3.org/2000/svg">
  <g>
    <g>
      <path d="M121.59,60.83l-13.93-4.49c-8.91-2.94-14.13-10.15-16.58-19.21L84.95,7.27 c-0.16-0.59-0.55-1.38-1.75-1.38c-1.01,0-1.59,0.79-1.75,1.38l-6.13,29.87c-2.46,9.06-7.67,16.27-16.58,19.21l-13.93,4.49 c-1.97,0.64-2,3.42-0.04,4.09l14.03,4.83c8.88,2.95,14.06,10.15,16.52,19.17l6.14,29.53c0.16,0.59,0.49,1.65,1.75,1.65 c1.33,0,1.59-1.06,1.75-1.65l6.14-29.53c2.46-9.03,7.64-16.23,16.52-19.17l14.03-4.83C123.59,64.25,123.56,61.47,121.59,60.83z" fill="#FDD835"/>
      <path d="M122.91,62.08c-0.22-0.55-0.65-1.03-1.32-1.25l-13.93-4.49c-8.91-2.94-14.13-10.15-16.58-19.21 L84.95,7.27c-0.09-0.34-0.41-0.96-0.78-1.14l1.98,29.97c1.47,13.68,2.73,20.12,13.65,22C109.18,59.72,120.03,61.58,122.91,62.08z" fill="#FFEE58"/>
      <path d="M122.94,63.64l-24.16,5.54c-8.51,2.16-13.2,7.09-13.2,19.99l-2.37,30.94 c0.81-0.08,1.47-0.52,1.75-1.65l6.14-29.53c2.46-9.03,7.64-16.23,16.52-19.17l14.03-4.83C122.31,64.69,122.73,64.2,122.94,63.64z" fill="#F4B400"/>
    </g>
    <g>
      <path d="M41.81,86.81c-8.33-2.75-9.09-5.85-10.49-11.08l-3.49-12.24c-0.21-0.79-2.27-0.79-2.49,0 L22.97,74.8c-1.41,5.21-4.41,9.35-9.53,11.04l-8.16,3.54c-1.13,0.37-1.15,1.97-0.02,2.35l8.22,2.91c5.1,1.69,8.08,5.83,9.5,11.02 l2.37,10.82c0.22,0.79,2.27,0.79,2.48,0l2.78-10.77c1.41-5.22,3.57-9.37,10.5-11.07l7.72-2.91c1.13-0.39,1.12-1.99-0.02-2.36 L41.81,86.81z" fill="#FDD835"/>
      <path d="M28.49,75.55c0.85,7.86,1.28,10.04,7.65,11.67l13.27,2.59c-0.14-0.19-0.34-0.35-0.61-0.43l-7-2.57 c-7.31-2.5-9.33-5.68-10.7-12.04c-1.37-6.36-2.83-10.51-2.83-10.51c-0.51-1.37-1.24-1.3-1.24-1.3L28.49,75.55z" fill="#FFEE58"/>
      <path d="M28.73,102.99c0-7.41,4.05-11.08,10.49-11.08l10.02-0.41c0,0-0.58,0.77-1.59,1.01l-6.54,2.13 c-5.55,2.23-8.08,3.35-9.8,10.94c0,0-2.22,8.83-2.64,9.76c-0.58,1.3-1.27,1.57-1.27,1.57L28.73,102.99z" fill="#F4B400"/>
    </g>
    <path d="M59.74,28.14c0.56-0.19,0.54-0.99-0.03-1.15l-7.72-2.08 c-1.62-0.44-2.88-1.69-3.34-3.3L45.61,9.06c-0.15-0.61-1.02-0.61-1.17,0.01l-2.86,12.5c-0.44,1.66-1.74,2.94-3.4,3.37l-7.67,1.99 c-0.57,0.15-0.61,0.95-0.05,1.15l8.09,2.8c1.45,0.5,2.57,1.68,3.01,3.15l2.89,11.59c0.15,0.6,1.01,0.61,1.16,0l2.99-11.63 c0.45-1.47,1.58-2.64,3.04-3.13L59.74,28.14z" fill="#F4B400" stroke="#F4B400" stroke-miterlimit="10"/>
  </g>
</svg>
